X:1
T:Title
%%score { ( 1 3 ) | 2 }
L:1/8
Q:1/4=100
M:4/4
K:D
V:1 treble nm="Grand Piano"
V:3 treble 
V:2 bass 
V:1
 F2 A2 G2 F2 | E4 B4 | [CA]2 [G,CE]2 [A,CF]2[K:bass] [G,CE]2 | [F,D]8 | %4
w: H.~A.~Prothero * * *||||
 [A,FA]2 [A,FA]2 [FB]2 [Fc]2 | [Fd]4 [=Fd]4 | d2 c2 B2 c2 | [A,CA]8 | %8
w: ||||
 [DG]2 [B,DG]2 [A,EA]2 [A,EG]2 | E2 z2 z4 | E2 E2 B2 B2 | A8 | ^A2 A2 A2 A2 | B4 E4 | %14
w: ||||||
 F2 [DA]2 [CG]2 [CE]2 | D8 |] %16
w: ||
V:2
 [D,A,D]2 [D,CD]2 [D,B,D]2 [D,A,D]2 | [E,^G,D]4 [E,G,D]4 | [A,,G,]2 A,,2 A,,2 A,,2 | D,8 | %4
 D,2 D,2 [D,F,]2 [C,^A,]2 | [B,,B,]4 [B,,A,]4 | [E,^G,E]2 [E,G,E]2 [E,G,D]2 [E,G,E]2 | A,,8 | %8
 B,,2 B,,2 C,2 C,2 | D,4 [D,A,D]4 | [G,A,C]2 [G,A,C]2 [G,A,C]2 [G,A,C]2 | [F,A,D]8 | %12
 [F,CE]2 [F,EG]2 [F,DF]2 [F,CE]2 | [G,B,D]4 [^G,B,D]4 | [A,D]2 [A,,F,]2 [A,,E,]2 [A,,G,]2 | %15
 [D,F,]8 |] %16
V:3
 x8 | x8 | x6[K:bass] x2 | x8 | x8 | x8 | x8 | x8 | x8 | [A,G]2- [A,CG]2 F4 | x8 | x8 | x8 | x8 | %14
 x8 | x8 |] %16

